X:338
T:Whistling Mike (Hornpipe)
C:after Sg't. J. O'Neill
M:C
L:1/8
K:Cmaj
(3(G,A,B,)|"C"CDEF GEcB|"F"AB (3(cBA) "C"GECE|"F"FAGF "C"EC (3(CB,C)|"G"DCB,A, G,2 (3(G,A,B,)|
"C"CDEF GEcB|"F"AB (3(cBA) "C"GECE|"F"FAGF "C"ED (3(CDE)|"G"DC{D}CB, "C"C2:|
|:(3(GAB)|"C"cGEG AGEG|cGEG AGEG|"C"cBAG "F"FEDC|"G"B,D (3(CB,A,) G,2 (3(G,A,B,)|
"C"CDEF GEcB|"F"AB (3(cBA) "C"GECE|"F"FAGF "C"ED (3(CDE)|"G"DC{D}CB, "C"C2:|

